X: 3
T: Tom Billy's
R: jig
M: 6/8
L: 1/8
K: Ador
eAA gfg|edB BAB|~G3 ~B3|def g2f|
eAA gfg|edB BAB|GBd gfg|1 edB ABd:| 2 edB A3 |
|:e2a age|aba age|~g3 gdB|GBd g2f|
eaa eaa|dgg dgg|edB gfg| 1 edB ABd:| 2 edB A3 |